X: 10032
M: C|
L: 1/8
K: Am
|: F2 |\
EFGA GAGF | EFGA GAGF | .EGAG BGAG | EGAG BGAG |\
EFGA GAGF | E2 e4 e2 | a2a2 ^g2g2 | a2a2 a2 :|


